X:51
M:12/8
L:1/8
K:D
d2B cBA B2A F2A | A2B c2A B3 B2c :| 
| d2e f2g a2f f2e | f2b b2d' b2a f2e | 
[1] d2e f2g a2f f2e | f2b b2d' b3 f2e :| 
[2] d2f e2d B2A F2A | A2B c2A B3 B3 || 

